!!!OTL: Der Duwakwak, der Duwackelwak, der Duwak ist mein Leben, der Duwakwak, der Duwakwak, der Duwak ist mei Freud
!!!ARE: Europa, Mitteleuropa, Deutschland, Wuerttemberg, Stuttgart
!!!SCT: D0292
!!!YEM: Copyright 1995, estate of Helmut Schaffrath.
**kern
*ICvox
*Ivox
!! Mixed meters:  2/4; 4/4
*M2/4
*k[f#]
*G:
=1
{4dd
=2
8b
8b
8b
8b
=3
8b
16b
16b
8b
8b
=4
8b
8b
8ee
8b
=5
4dd
8cc}
{8cc
=6
8a
8a
8a
8d
=7
8a
8a
8a
8a
=8
8dd
8dd
8dd
8f#
=9
4g
4r}
=10
{8d
8d
8g
8a
=11
*M4/4
8.b
16a
8g
8g
8r
8b
8ee
8ee
=12
8dd
8cc
4f#
8r}
{8d
8f#
8a
=13
8dd
8dd
8dd
8dd
8r
8cc
8b
8a
=14
*M2/4
8.b
16a
4g
=15
8r}
{8d
8g
8a
=16
*M4/4
8.b
16a
4.g
8ee
8ee
8b
=17
8dd
8cc
4.f#}
{8d
8f#
8a
=18
8dd
8dd
4.dd
8dd
8cc
8f#
=19
2g
8r}
{8d
8g
8a
=20
8.b
16a
4.g
8ee
8ee
8b
=21
8dd
8cc
4.f#}
{8d
8f#
8a
=22
8dd
8dd
4.dd
8dd
8cc
8f#
=23
2g
4r}
==
!!!AGN: Trink - Lied, Zech - Lied
!! letzte Pause rhythmisch korrigiert
!!!ONB: ESAC (Essen Associative Code) Database: DVA
!!!AMT: irregular
!!!AIN: vox
!!!EED: Helmut Schaffrath
!!!EEV: 1.0
*-
